libs/ui/packages/crypto-icons/src/svg/ARDR.svg

<svg width="24" height="24" viewBox="0 0 24 24" fill="none">
<path fill-rule="evenodd" clip-rule="evenodd" d="M11.9123 14.0175L13.239 15.7515L9.375 18.375L11.9123 14.0175ZM12 5.625L14.0452 8.9805L8.59125 18.375H4.5L12 5.625ZM12 13.0065L14.727 10.9935L19.5 18.375H16.0912L12 13.0065Z" fill="#3C87C7"/>
</svg>

<svg width="24" height="24" viewBox="0 0 24 24" fill="none"><path fill="#3c87c7" fill-rule="evenodd" d="m11.912 14.018 1.327 1.733-3.864 2.624zM12 5.624l2.045 3.355-5.454 9.395H4.5zm0 7.382 2.727-2.014 4.773 7.382h-3.409z" clip-rule="evenodd"/></svg>
